Sweet-Rainbow/icons/de.haeckerfelix.Fragments.svg

<?xml version="1.0" encoding="UTF-8" standalone="no"?>
<!-- Generator: Gravit.io -->

<svg
   xmlns:dc="http://purl.org/dc/elements/1.1/"
   xmlns:cc="http://creativecommons.org/ns#"
   xmlns:rdf="http://www.w3.org/1999/02/22-rdf-syntax-ns#"
   xmlns:svg="http://www.w3.org/2000/svg"
   xmlns="http://www.w3.org/2000/svg"
   xmlns:sodipodi="http://sodipodi.sourceforge.net/DTD/sodipodi-0.dtd"
   xmlns:inkscape="http://www.inkscape.org/namespaces/inkscape"
   style="isolation:isolate"
   viewBox="0 0 36 36"
   width="48"
   height="48"
   version="1.1"
   id="svg55"
   sodipodi:docname="de.haeckerfelix.Fragments.svg"
   inkscape:version="0.92.4 (5da689c313, 2019-01-14)">
  <metadata
     id="metadata61">
    <rdf:RDF>
      <cc:Work
         rdf:about="">
        <dc:format>image/svg+xml</dc:format>
        <dc:type
           rdf:resource="http://purl.org/dc/dcmitype/StillImage" />
        <dc:title></dc:title>
      </cc:Work>
    </rdf:RDF>
  </metadata>
  <defs
     id="defs59" />
  <sodipodi:namedview
     pagecolor="#ffffff"
     bordercolor="#666666"
     borderopacity="1"
     objecttolerance="10"
     gridtolerance="10"
     guidetolerance="10"
     inkscape:pageopacity="0"
     inkscape:pageshadow="2"
     inkscape:window-width="640"
     inkscape:window-height="480"
     id="namedview57"
     showgrid="false"
     inkscape:zoom="29.365243"
     inkscape:cx="25.325443"
     inkscape:cy="32"
     inkscape:current-layer="svg55"
     units="px" />
  <linearGradient
     id="_lgradient_7"
     x1="-3.8208334e-05"
     y1="0.50000006"
     x2="0.99996185"
     y2="0.50000006"
     gradientTransform="matrix(14.36,0,0,22.77,0,12.615)"
     gradientUnits="userSpaceOnUse">
    <stop
       offset="0%"
       stop-opacity="1"
       style="stop-color:rgb(211,0,220)"
       id="stop2" />
    <stop
       offset="100%"
       stop-opacity="1"
       style="stop-color:rgb(135,0,255)"
       id="stop4" />
  </linearGradient>
  <linearGradient
     id="_lgradient_8"
     x1="-0.015625"
     y1="1.109375"
     x2="1.1950608"
     y2="-0.21306652"
     gradientTransform="matrix(14.36,0,0,14.36,12.615,0)"
     gradientUnits="userSpaceOnUse">
    <stop
       offset="0%"
       stop-opacity="1"
       style="stop-color:rgb(247,241,7)"
       id="stop9" />
    <stop
       offset="83.88839793817618%"
       stop-opacity="1"
       style="stop-color:rgb(255,187,36)"
       id="stop11" />
  </linearGradient>
  <linearGradient
     id="_lgradient_9"
     x1="-0.093891405"
     y1="1.1568156"
     x2="1.1094457"
     y2="-0.062782809"
     gradientTransform="matrix(14.36,0,0,14.36,18.922,6.307)"
     gradientUnits="userSpaceOnUse">
    <stop
       offset="2.608695652173913%"
       stop-opacity="1"
       style="stop-color:rgb(179,255,171)"
       id="stop16" />
    <stop
       offset="98.69565217391305%"
       stop-opacity="1"
       style="stop-color:rgb(18,255,247)"
       id="stop18" />
  </linearGradient>
  <linearGradient
     id="_lgradient_10"
     x1="-0.26666668"
     y1="0.59375"
     x2="1.2212719"
     y2="0.94051534"
     gradientTransform="matrix(21.719,0,0,14.36,26.281,13.666)"
     gradientUnits="userSpaceOnUse">
    <stop
       offset="0%"
       stop-opacity="1"
       style="stop-color:rgb(249,212,35)"
       id="stop23" />
    <stop
       offset="51.56237565086822%"
       stop-opacity="1"
       style="stop-color:rgb(255,78,80)"
       id="stop25" />
    <stop
       offset="99.1304347826087%"
       stop-opacity="1"
       style="stop-color:rgb(138,35,135)"
       id="stop27" />
  </linearGradient>
  <linearGradient
     id="_lgradient_11"
     x1="-0.046875"
     y1="1.203125"
     x2="1.3128184"
     y2="-0.28694993"
     gradientTransform="matrix(14.36,0,0,14.36,21.025,33.64)"
     gradientUnits="userSpaceOnUse">
    <stop
       offset="0%"
       stop-opacity="1"
       style="stop-color:rgb(0,196,255)"
       id="stop32" />
    <stop
       offset="83.88839793817618%"
       stop-opacity="1"
       style="stop-color:rgb(0,114,255)"
       id="stop34" />
  </linearGradient>
  <linearGradient
     id="_lgradient_12"
     x1="0.079062961"
     y1="-0.026379477"
     x2="0.21875446"
     y2="0.94649357"
     gradientTransform="matrix(14.36,0,0,21.719,13.666,18.922)"
     gradientUnits="userSpaceOnUse">
    <stop
       offset="0%"
       stop-opacity="1"
       style="stop-color:rgb(84,51,255)"
       id="stop39" />
    <stop
       offset="51.73913043478261%"
       stop-opacity="1"
       style="stop-color:rgb(32,189,255)"
       id="stop41" />
    <stop
       offset="98.26086956521739%"
       stop-opacity="1"
       style="stop-color:rgb(165,254,203)"
       id="stop43" />
  </linearGradient>
  <linearGradient
     id="_lgradient_13"
     x1="0"
     y1="0.5"
     x2="1"
     y2="0.5"
     gradientTransform="matrix(9.104,0,0,9.104,33.64,26.281)"
     gradientUnits="userSpaceOnUse">
    <stop
       offset="0%"
       stop-opacity="1"
       style="stop-color:rgb(255,153,102)"
       id="stop48" />
    <stop
       offset="98.26086956521739%"
       stop-opacity="1"
       style="stop-color:rgb(255,94,98)"
       id="stop50" />
  </linearGradient>
  <g
     id="g878"
     transform="scale(0.75)">
    <path
       id="path7"
       d="M 12.867,30.928 14.36,32.41 11.385,35.385 9.903,33.892 0,24 9.903,14.108 11.385,12.615 14.36,15.59 12.867,17.072 5.95,24 Z"
       inkscape:connector-curvature="0"
       style="fill:url(#_lgradient_7)" />
    <path
       id="path14"
       d="M 22.518,1.493 24,0 l 2.975,2.975 -1.493,1.482 -8.41,8.41 -1.482,1.493 -2.975,-2.975 1.493,-1.482 z"
       inkscape:connector-curvature="0"
       style="fill:url(#_lgradient_8)" />
    <path
       id="path21"
       d="m 28.825,7.8 1.482,-1.493 2.976,2.976 -1.493,1.482 -8.41,8.41 -1.482,1.493 -2.976,-2.975 1.493,-1.483 z"
       inkscape:connector-curvature="0"
       style="fill:url(#_lgradient_9)" />
    <path
       id="path30"
       d="m 30.739,26.534 -1.483,1.492 -2.975,-2.975 1.493,-1.482 9.892,-9.903 8.841,8.852 L 48,24 45.025,26.975 43.543,25.482 37.666,19.616 Z"
       inkscape:connector-curvature="0"
       style="fill:url(#_lgradient_10)" />
    <path
       id="path37"
       d="m 30.928,35.133 1.482,-1.493 2.975,2.975 -1.493,1.482 -8.41,8.41 L 24,48 21.025,45.025 22.518,43.543 Z"
       inkscape:connector-curvature="0"
       style="fill:url(#_lgradient_11)" />
    <path
       id="path46"
       d="m 16.21,23.38 -1.493,-1.482 2.976,-2.976 1.482,1.493 8.851,8.841 -9.902,9.892 -1.483,1.493 -2.975,-2.975 1.493,-1.482 6.917,-6.928 z"
       inkscape:connector-curvature="0"
       style="fill:url(#_lgradient_12)" />
    <path
       id="path53"
       d="m 38.286,27.774 1.483,-1.493 2.975,2.975 -1.493,1.483 -3.154,3.153 -1.482,1.493 -2.975,-2.975 1.493,-1.482 z"
       inkscape:connector-curvature="0"
       style="fill:url(#_lgradient_13)" />
  </g>
</svg>

<?xml version="1.0" encoding="UTF-8" standalone="no"?><!-- Generator: Gravit.io --><svg xmlns="http://www.w3.org/2000/svg" xmlns:xlink="http://www.w3.org/1999/xlink" style="isolation:isolate" viewBox="0 0 48 48" width="48pt" height="48pt"><linearGradient id="_lgradient_7" x1="-0.000038208333333289435" y1="0.5000000833333331" x2="0.9999618333333335" y2="0.5000000833333331" gradientTransform="matrix(14.36,0,0,22.77,0,12.615)" gradientUnits="userSpaceOnUse"><stop offset="0%" stop-opacity="1" style="stop-color:rgb(211,0,220)"/><stop offset="100%" stop-opacity="1" style="stop-color:rgb(135,0,255)"/></linearGradient><path d=" M 12.867 30.928 L 14.36 32.41 L 11.385 35.385 L 9.903 33.892 L 0 24 L 9.903 14.108 L 11.385 12.615 L 14.36 15.59 L 12.867 17.072 L 5.95 24 L 12.867 30.928 Z " fill="url(#_lgradient_7)"/><linearGradient id="_lgradient_8" x1="-0.015624999999999889" y1="1.109375" x2="1.1950608933561853" y2="-0.2130665142813717" gradientTransform="matrix(14.36,0,0,14.36,12.615,0)" gradientUnits="userSpaceOnUse"><stop offset="0%" stop-opacity="1" style="stop-color:rgb(247,241,7)"/><stop offset="83.88839793817618%" stop-opacity="1" style="stop-color:rgb(255,187,36)"/></linearGradient><path d=" M 22.518 1.493 L 24 0 L 26.975 2.975 L 25.482 4.457 L 17.072 12.867 L 15.59 14.36 L 12.615 11.385 L 14.108 9.903 L 22.518 1.493 Z " fill="url(#_lgradient_8)"/><linearGradient id="_lgradient_9" x1="-0.09389140271493224" y1="1.156815610859728" x2="1.109445701357466" y2="-0.0627828054298647" gradientTransform="matrix(14.36,0,0,14.36,18.922,6.307)" gradientUnits="userSpaceOnUse"><stop offset="2.608695652173913%" stop-opacity="1" style="stop-color:rgb(179,255,171)"/><stop offset="98.69565217391305%" stop-opacity="1" style="stop-color:rgb(18,255,247)"/></linearGradient><path d=" M 28.825 7.8 L 30.307 6.307 L 33.283 9.283 L 31.79 10.765 L 23.38 19.175 L 21.898 20.668 L 18.922 17.693 L 20.415 16.21 L 28.825 7.8 Z " fill="url(#_lgradient_9)"/><linearGradient id="_lgradient_10" x1="-0.2666666666666667" y1="0.59375" x2="1.221271929824562" y2="0.940515350877193" gradientTransform="matrix(21.719,0,0,14.36,26.281,13.666)" gradientUnits="userSpaceOnUse"><stop offset="0%" stop-opacity="1" style="stop-color:rgb(249,212,35)"/><stop offset="51.56237565086822%" stop-opacity="1" style="stop-color:rgb(255,78,80)"/><stop offset="99.1304347826087%" stop-opacity="1" style="stop-color:rgb(138,35,135)"/></linearGradient><path d=" M 30.739 26.534 L 29.256 28.026 L 26.281 25.051 L 27.774 23.569 L 37.666 13.666 L 46.507 22.518 L 48 24 L 45.025 26.975 L 43.543 25.482 L 37.666 19.616 L 30.739 26.534 Z " fill="url(#_lgradient_10)"/><linearGradient id="_lgradient_11" x1="-0.04687499999999989" y1="1.203125" x2="1.3128183879231003" y2="-0.28694994566915133" gradientTransform="matrix(14.36,0,0,14.36,21.025,33.64)" gradientUnits="userSpaceOnUse"><stop offset="0%" stop-opacity="1" style="stop-color:rgb(0,196,255)"/><stop offset="83.88839793817618%" stop-opacity="1" style="stop-color:rgb(0,114,255)"/></linearGradient><path d=" M 30.928 35.133 L 32.41 33.64 L 35.385 36.615 L 33.892 38.097 L 25.482 46.507 L 24 48 L 21.025 45.025 L 22.518 43.543 L 30.928 35.133 Z " fill="url(#_lgradient_11)"/><linearGradient id="_lgradient_12" x1="0.07906295754026349" y1="-0.02637947725072609" x2="0.21875445393176887" y2="0.9464935877117088" gradientTransform="matrix(14.36,0,0,21.719,13.666,18.922)" gradientUnits="userSpaceOnUse"><stop offset="0%" stop-opacity="1" style="stop-color:rgb(84,51,255)"/><stop offset="51.73913043478261%" stop-opacity="1" style="stop-color:rgb(32,189,255)"/><stop offset="98.26086956521739%" stop-opacity="1" style="stop-color:rgb(165,254,203)"/></linearGradient><path d=" M 16.21 23.38 L 14.717 21.898 L 17.693 18.922 L 19.175 20.415 L 28.026 29.256 L 18.124 39.148 L 16.641 40.641 L 13.666 37.666 L 15.159 36.184 L 22.076 29.256 L 16.21 23.38 Z " fill="url(#_lgradient_12)"/><linearGradient id="_lgradient_13" x1="0" y1="0.5" x2="1" y2="0.5" gradientTransform="matrix(9.104,0,0,9.104,33.64,26.281)" gradientUnits="userSpaceOnUse"><stop offset="0%" stop-opacity="1" style="stop-color:rgb(255,153,102)"/><stop offset="98.26086956521739%" stop-opacity="1" style="stop-color:rgb(255,94,98)"/></linearGradient><path d=" M 38.286 27.774 L 39.769 26.281 L 42.744 29.256 L 41.251 30.739 L 38.097 33.892 L 36.615 35.385 L 33.64 32.41 L 35.133 30.928 L 38.286 27.774 Z " fill="url(#_lgradient_13)"/></svg>
